Numix/32/mimetypes/image-x-adobe-dng.svg

<?xml version="1.0" encoding="UTF-8" standalone="no"?>
<svg
   xmlns:dc="http://purl.org/dc/elements/1.1/"
   xmlns:cc="http://creativecommons.org/ns#"
   xmlns:rdf="http://www.w3.org/1999/02/22-rdf-syntax-ns#"
   xmlns:svg="http://www.w3.org/2000/svg"
   xmlns="http://www.w3.org/2000/svg"
   xmlns:sodipodi="http://sodipodi.sourceforge.net/DTD/sodipodi-0.dtd"
   xmlns:inkscape="http://www.inkscape.org/namespaces/inkscape"
   width="32"
   height="32"
   viewBox="0 0 32 32"
   id="svg2"
   version="1.1"
   inkscape:version="0.91 r13725"
   sodipodi:docname="image-x-adobe-dng.svg">
  <metadata
     id="metadata16">
    <rdf:RDF>
      <cc:Work
         rdf:about="">
        <dc:format>image/svg+xml</dc:format>
        <dc:type
           rdf:resource="http://purl.org/dc/dcmitype/StillImage" />
        <dc:title />
      </cc:Work>
    </rdf:RDF>
  </metadata>
  <defs
     id="defs14">
    <clipPath
       id="clipPath-258929573">
      <g
         transform="translate(0,-1004.3622)"
         id="g17">
        <path
           inkscape:connector-curvature="0"
           d="m -24,13 c 0,1.105 -0.672,2 -1.5,2 -0.828,0 -1.5,-0.895 -1.5,-2 0,-1.105 0.672,-2 1.5,-2 0.828,0 1.5,0.895 1.5,2 z"
           transform="matrix(15.333333,0,0,11.5,414.99999,878.8622)"
           style="fill:#1890d0"
           id="path19" />
      </g>
    </clipPath>
    <clipPath
       id="clipPath-258929573-0">
      <g
         transform="translate(0,-1004.3622)"
         id="g17-5">
        <path
           inkscape:connector-curvature="0"
           d="m -24,13 c 0,1.105 -0.672,2 -1.5,2 -0.828,0 -1.5,-0.895 -1.5,-2 0,-1.105 0.672,-2 1.5,-2 0.828,0 1.5,0.895 1.5,2 z"
           transform="matrix(15.333333,0,0,11.5,414.99999,878.8622)"
           style="fill:#1890d0"
           id="path19-5" />
      </g>
    </clipPath>
    <clipPath
       id="clipPath-258929573-1">
      <g
         transform="translate(0,-1004.3622)"
         id="g17-3">
        <path
           inkscape:connector-curvature="0"
           d="m -24,13 c 0,1.105 -0.672,2 -1.5,2 -0.828,0 -1.5,-0.895 -1.5,-2 0,-1.105 0.672,-2 1.5,-2 0.828,0 1.5,0.895 1.5,2 z"
           transform="matrix(15.333333,0,0,11.5,414.99999,878.8622)"
           style="fill:#1890d0"
           id="path19-8" />
      </g>
    </clipPath>
  </defs>
  <sodipodi:namedview
     pagecolor="#ffffff"
     bordercolor="#666666"
     borderopacity="1"
     objecttolerance="10"
     gridtolerance="10"
     guidetolerance="10"
     inkscape:pageopacity="0"
     inkscape:pageshadow="2"
     inkscape:window-width="1920"
     inkscape:window-height="1013"
     id="namedview12"
     showgrid="true"
     inkscape:zoom="22.627417"
     inkscape:cx="1.4077423"
     inkscape:cy="9.6188546"
     inkscape:window-x="0"
     inkscape:window-y="27"
     inkscape:window-maximized="1"
     inkscape:current-layer="svg2">
    <inkscape:grid
       type="xygrid"
       id="grid3004" />
  </sodipodi:namedview>
  <path
     style="fill:#38a34e;fill-opacity:1"
     d="M 5.335888,2.97e-4 C 4.648414,3.12e-4 4,0.676788 4,1.394031 L 4,30.606268 C 4,31.282757 4.687474,32 5.335888,32 l 21.327332,0 c 0.648414,0 1.335888,-0.717243 1.335888,-1.393732 L 28,8.9999999 19,0 z"
     id="path4-1"
     inkscape:connector-curvature="0"
     sodipodi:nodetypes="ssssssccs" />
  <path
     style="fill:#000000;fill-opacity:0.19599998"
     d="M 21,8.9999999 28,16 28,8.9999999 z"
     id="path6-4"
     inkscape:connector-curvature="0"
     sodipodi:nodetypes="cccc" />
  <path
     style="fill:#ffffff;fill-opacity:0.39200003"
     d="m 19.000306,2.97e-4 8.991594,8.9997029 -7.613262,0 c -0.672951,0 -1.378332,-0.7134896 -1.378332,-1.3864402 z"
     id="path8-6"
     inkscape:connector-curvature="0"
     sodipodi:nodetypes="ccssc" />
  <path
     style="fill:#000000;fill-opacity:0.19599998"
     d="m 4,24 0,6.667969 C 4,31.316407 4.6875,32 5.3320311,32 L 26.667969,32 C 27.3125,32 28,31.316407 28,30.667969 L 28,24 Z"
     id="path3011"
     inkscape:connector-curvature="0" />
  <path
     inkscape:connector-curvature="0"
     id="path4165"
     style="font-style:normal;font-variant:normal;font-weight:bold;font-stretch:normal;font-size:medium;line-height:125%;font-family:'Ubuntu Mono';-inkscape-font-specification:'Ubuntu Mono, Bold';text-align:start;letter-spacing:0px;word-spacing:0px;writing-mode:lr-tb;text-anchor:start;fill:#ffffff;fill-opacity:1;stroke:none;stroke-width:1px;stroke-linecap:butt;stroke-linejoin:miter;stroke-opacity:1"
     d="m 10.583784,30 c 0.267303,0 0.490056,-0.06305 0.668258,-0.164001 0.184566,-0.100947 0.330946,-0.239748 0.439141,-0.416405 0.114558,-0.176656 0.194112,-0.384858 0.238663,-0.624606 C 11.980756,28.548931 12,28.280793 12,27.990572 c 0,-0.252366 -0.01287,-0.498423 -0.05106,-0.738171 -0.03819,-0.239747 -0.105012,-0.451104 -0.200477,-0.63407 -0.09547,-0.182965 -0.225935,-0.328075 -0.391408,-0.43533 C 11.191578,26.069436 10.978372,26 10.717433,26 L 10,26 10,30 Z M 13,27.990536 c 0,0.542587 -0.07001,1.006309 -0.210024,1.391167 -0.133651,0.378549 -0.3214,0.687697 -0.563246,0.927445 -0.241845,0.239747 -0.531424,0.416404 -0.868735,0.529969 C 11.027048,30.946372 10.661098,31 10.260143,31 l -1.2601432,0 0,-6 1.4128882,0 c 0.388226,0 0.741448,0.05678 1.059666,0.170347 0.324582,0.113565 0.598249,0.293376 0.821002,0.539433 0.222753,0.239747 0.39459,0.548896 0.515513,0.927445 C 12.936356,27.009464 13,27.460568 13,27.990536 Z"
     sodipodi:nodetypes="ccccssscccccscsccccccccs" />
  <path
     inkscape:connector-curvature="0"
     id="path4167"
     style="font-style:normal;font-variant:normal;font-weight:bold;font-stretch:normal;font-size:medium;line-height:125%;font-family:'Ubuntu Mono';-inkscape-font-specification:'Ubuntu Mono, Bold';text-align:start;letter-spacing:0px;word-spacing:0px;writing-mode:lr-tb;text-anchor:start;fill:#ffffff;fill-opacity:1;stroke:none;stroke-width:1px;stroke-linecap:butt;stroke-linejoin:miter;stroke-opacity:1"
     d="m 17,31 -2,-4 0,4 -1,0 0,-5.999967 1,0 L 17,29 l 0,-3.999967 1,0 L 18,31 Z"
     sodipodi:nodetypes="ccccccccccc" />
  <path
     inkscape:connector-curvature="0"
     id="path4169"
     style="font-style:normal;font-variant:normal;font-weight:bold;font-stretch:normal;font-size:medium;line-height:125%;font-family:'Ubuntu Mono';-inkscape-font-specification:'Ubuntu Mono, Bold';text-align:start;letter-spacing:0px;word-spacing:0px;writing-mode:lr-tb;text-anchor:start;fill:#ffffff;fill-opacity:1;stroke:none;stroke-width:1px;stroke-linecap:butt;stroke-linejoin:miter;stroke-opacity:1"
     d="m 21.472415,26 c -0.268497,0 -0.494584,0.04335 -0.677651,0.142415 -0.183066,0.09907 -0.335621,0.23839 -0.457666,0.417957 -0.115942,0.173374 -0.201373,0.3839 -0.256293,0.631578 C 20.031995,27.433437 20,27.702787 20,28 c 0,0.687307 0.114374,1.195047 0.327951,1.52322 C 20.541528,29.845201 20.855792,30 21.270742,30 L 22,29.969032 22,28 l 1,0 0,2.739929 c -0.134253,0.04954 -0.372235,0.10527 -0.659039,0.167191 C 22.060259,30.96904 21.718535,31 21.315789,31 20.961861,31 20.641495,30.93808 20.354691,30.814241 20.073989,30.68421 19.832952,30.495356 19.631579,30.247678 19.430206,29.993808 19.274599,29.681115 19.16476,29.309598 19.05492,28.931889 19,28.495356 19,28 c 0,-0.489164 0.06407,-0.919505 0.19222,-1.291022 0.128146,-0.377709 0.302059,-0.693498 0.521739,-0.947368 0.219679,-0.25387 0.479023,-0.442725 0.778032,-0.566564 C 20.790999,25.065015 21.111365,25 21.453089,25 c 0.21968,0 0.414951,0.01858 0.585813,0.05573 0.176964,0.03097 0.329519,0.06812 0.457666,0.111456 0.128146,0.04334 0.231883,0.08978 0.311212,0.139318 L 23,25.41796 22.707094,26.328176 C 22.572845,26.241486 22.408086,26.164088 22.212815,26.095977 22.017544,26.027867 21.67989,26.000002 21.472415,26 Z"
     sodipodi:nodetypes="ssccscccccccscccscscscccccss" />
  <g
     transform="matrix(0.40082111,0,0,0.40065477,6.3788233,6.3732701)"
     style="fill:#ffffff;fill-opacity:1"
     id="g59">
    <g
       id="g61"
       clip-path="url(#clipPath-258929573-1)"
       style="fill:#ffffff">
      <!-- color: #3d3d3d -->
      <g
         id="g63"
         style="fill:#ffffff">
        <path
           style="fill:#ffffff;fill-rule:nonzero;stroke:none"
           d="m 16.089844,10.007812 c -1.647385,0.02317 -3.248499,0.700118 -4.390625,1.935547 l 2.873047,2.886719 1.517578,-4.822266 z m 1.470703,0.31836 -1.179688,3.759766 3.197266,-0.53711 1.808594,-0.351562 c -0.806312,-1.417159 -2.181368,-2.470118 -3.826172,-2.871094 z m -6.859375,2.740234 c -0.7320031,1.377377 -0.9077695,3.006727 -0.427734,4.53711 l 4.134765,-0.675782 -0.652344,-0.792968 -3.054687,-3.06836 z m 11.113281,1.626953 -3.806641,0.638672 3.181641,3.779297 c 0.768227,-1.324374 1.009221,-2.907602 0.625,-4.417969 z m -4.236328,2.458985 -1.816406,4.333984 -0.205078,0.507813 c 1.698131,0.0725 3.373185,-0.573608 4.58789,-1.794922 l -2.566406,-3.046875 z m -2.097656,1.121094 -4.714844,0.769531 c 0.763067,1.193862 1.939817,2.098057 3.333984,2.523437 l 1.38086,-3.292968 z"
           transform="matrix(2.4970249,0,0,2.4976141,-15.947859,-15.944531)"
           id="path65"
           inkscape:connector-curvature="0" />
      </g>
    </g>
  </g>
</svg>

<svg xmlns="http://www.w3.org/2000/svg" viewBox="0 0 32 32">
 <defs>
  
 </defs>
 <path d="m 5.336 0 c -0.687 0 -1.336 0.676 -1.336 1.394 l 0 29.21 c 0 0.676 0.687 1.394 1.336 1.394 l 21.327 0 c 0.648 0 1.336 -0.717 1.336 -1.394 l 0.001 -21.606 -9 -9 z" style="fill:#38a34e;fill-opacity:1"/>
 <path d="m 21 9 7 7 0 -7 z" style="fill:#000;fill-opacity:0.196"/>
 <path d="m 19 0 8.992 9 -7.613 0 c -0.673 0 -1.378 -0.713 -1.378 -1.386 z" style="fill:#fff;fill-opacity:0.392"/>
 <path d="m 4 24 0 6.668 c 0 0.648 0.688 1.332 1.332 1.332 l 21.336 0 c 0.645 0 1.332 -0.684 1.332 -1.332 l 0 -6.668" style="fill:#000;fill-opacity:0.196"/>
 <path d="m 10.584 30 c 0.267 0 0.49 -0.063 0.668 -0.164 0.185 -0.101 0.331 -0.24 0.439 -0.416 0.115 -0.177 0.194 -0.385 0.239 -0.625 c 0.051 -0.246 0.07 -0.514 0.07 -0.804 c 0 -0.252 -0.013 -0.498 -0.051 -0.738 -0.038 -0.24 -0.105 -0.451 -0.2 -0.634 -0.095 -0.183 -0.226 -0.328 -0.391 -0.435 c -0.165 -0.114 -0.379 -0.183 -0.64 -0.183 l -0.717 0 0 4 m 3 -2.01 c 0 0.543 -0.07 1.01 -0.21 1.391 -0.134 0.379 -0.321 0.688 -0.563 0.927 -0.242 0.24 -0.531 0.416 -0.869 0.53 c -0.331 0.107 -0.697 0.161 -1.098 0.161 l -1.26 0 0 -6 1.413 0 c 0.388 0 0.741 0.057 1.06 0.17 0.325 0.114 0.598 0.293 0.821 0.539 0.223 0.24 0.395 0.549 0.516 0.927 c 0.127 0.372 0.191 0.823 0.191 1.353" style="fill:#fff;fill-opacity:1;stroke:none"/>
 <path d="m 17 31 -2 -4 0 4 -1 0 0 -6 1 0 l 2 4 l 0 -4 1 0 l 0 6" style="fill:#fff;fill-opacity:1;stroke:none"/>
 <path d="m 21.472 26 c -0.268 0 -0.495 0.043 -0.678 0.142 -0.183 0.099 -0.336 0.238 -0.458 0.418 -0.116 0.173 -0.201 0.384 -0.256 0.632 c -0.049 0.241 -0.081 0.511 -0.081 0.808 c 0 0.687 0.114 1.195 0.328 1.523 c 0.214 0.322 0.528 0.477 0.943 0.477 l 0.729 -0.031 0 -1.969 l 1 0 0 2.74 c -0.134 0.05 -0.372 0.105 -0.659 0.167 c -0.281 0.062 -0.622 0.093 -1.025 0.093 -0.354 0 -0.674 -0.062 -0.961 -0.186 -0.281 -0.13 -0.522 -0.319 -0.723 -0.567 -0.201 -0.254 -0.357 -0.567 -0.467 -0.938 -0.11 -0.378 -0.165 -0.814 -0.165 -1.31 c 0 -0.489 0.064 -0.92 0.192 -1.291 0.128 -0.378 0.302 -0.693 0.522 -0.947 0.22 -0.254 0.479 -0.443 0.778 -0.567 c 0.299 -0.13 0.619 -0.195 0.961 -0.195 c 0.22 0 0.415 0.019 0.586 0.056 0.177 0.031 0.33 0.068 0.458 0.111 0.128 0.043 0.232 0.09 0.311 0.139 l 0.192 0.111 -0.293 0.91 c -0.134 -0.087 -0.299 -0.164 -0.494 -0.232 -0.195 -0.068 -0.533 -0.096 -0.74 -0.096" style="fill:#fff;fill-opacity:1;stroke:none"/>
 <g transform="matrix(0.40082111,0,0,0.40065477,6.3788233,6.3732701)" style="fill:#fff;fill-opacity:1">
  <g style="clip-path:url(#clipPath-258929573-1);fill:#fff">
   <!-- color: #3d3d3d -->
   <g style="fill:#fff">
    <path d="m 16.09 10.01 c -1.647 0.023 -3.248 0.7 -4.391 1.936 l 2.873 2.887 1.518 -4.822 z m 1.471 0.318 -1.18 3.76 3.197 -0.537 1.809 -0.352 c -0.806 -1.417 -2.181 -2.47 -3.826 -2.871 z m -6.859 2.74 c -0.732 1.377 -0.908 3.01 -0.428 4.537 l 4.135 -0.676 -0.652 -0.793 -3.055 -3.068 z m 11.11 1.627 -3.807 0.639 3.182 3.779 c 0.768 -1.324 1.01 -2.908 0.625 -4.418 z m -4.236 2.459 -1.816 4.334 -0.205 0.508 c 1.698 0.073 3.373 -0.574 4.588 -1.795 l -2.566 -3.047 z m -2.098 1.121 -4.715 0.77 c 0.763 1.194 1.94 2.098 3.334 2.523 l 1.381 -3.293 z" transform="matrix(2.4970249,0,0,2.4976141,-15.947859,-15.944531)" style="fill:#fff;stroke:none;fill-rule:nonzero"/>
   </g>
  </g>
 </g>
</svg>
